ir/repository.svg

<svg viewBox="0 0 24 24" stroke-width="1.5" fill="none" xmlns="http://www.w3.org/2000/svg" height="1em" width="1em">
  <path d="M4 19V5C4 3.89543 4.89543 3 6 3H19.4C19.7314 3 20 3.26863 20 3.6V16.7143" stroke="currentColor" stroke-linecap="round"/>
  <path d="M15 17V22L17.5 20.4L20 22V17" stroke="currentColor" stroke-linecap="round" stroke-linejoin="round"/>
  <path d="M6 17L20 17" stroke="currentColor" stroke-linecap="round"/>
  <path d="M6 17C4.89543 17 4 17.8954 4 19C4 20.1046 4.89543 21 6 21H11.5" stroke="currentColor" stroke-linecap="round" stroke-linejoin="round"/>
</svg>

<svg viewBox="0 0 24 24" stroke-width="1.5" fill="none" xmlns="http://www.w3.org/2000/svg" height="1em" width="1em">
  <path d="M4 19V5a2 2 0 0 1 2-2h13.4a.6.6 0 0 1 .6.6v13.114" stroke="currentColor" stroke-linecap="round"/>
  <path d="M15 17v5l2.5-1.6L20 22v-5" stroke="currentColor" stroke-linecap="round" stroke-linejoin="round"/>
  <path d="M6 17h14" stroke="currentColor" stroke-linecap="round"/>
  <path d="M6 17a2 2 0 1 0 0 4h5.5" stroke="currentColor" stroke-linecap="round" stroke-linejoin="round"/>
</svg>
